frontend/public/svg/windmill.svg

<?xml version="1.0" encoding="UTF-8" standalone="no"?>
<svg xmlns="http://www.w3.org/2000/svg" width="577.02" height="719.52" version="1.0">
<title>Windmill</title>
<path style="fill:black;stroke:none" d="M 305.44304,296.85392 C 304.57351,296.52025 303.45479,295.17602 302.957,293.86674 C 302.3272,292.21023 299.70708,290.41764 294.34204,287.97272 C 290.1016,286.04029 285.93086,284.57416 285.07372,284.71466 C 282.53031,285.13155 281.01528,283.58708 281.01528,280.57737 C 281.01528,277.82838 278.93645,275.54115 270.51095,269.02002 C 267.18584,266.44646 265.11459,260.50204 265.05917,253.37361 C 265.01865,248.16067 265.28092,247.49397 268.47554,244.68905 C 270.37869,243.01807 274.09119,240.4228 276.72554,238.92179 C 279.3599,237.42078 282.97233,235.12258 284.75318,233.81469 C 287.31123,231.936 288.39975,231.65541 289.93744,232.47836 C 291.00793,233.05127 292.60884,233.52002 293.49499,233.52002 C 296.17656,233.52002 300.01528,228.89327 300.01528,225.66122 C 300.01528,223.02295 300.74891,222.33185 306.96356,219.11576 C 310.78512,217.1381 315.31654,215.52002 317.03339,215.52002 C 320.09331,215.52002 328.16618,210.91665 330.76528,207.68971 C 331.45278,206.83614 332.01528,204.35979 332.01528,202.1867 C 332.01528,196.35638 325.72291,189.48785 313.89327,182.40534 C 308.73537,179.31726 295.74028,171.48196 285.01528,164.99356 C 246.22289,141.52496 156.96125,94.726703 89.783516,62.637096 C 56.788789,46.876102 23.405416,30.278073 21.826669,28.849328 C 19.927875,27.130942 19.311194,21.073201 20.933018,20.070859 C 22.005566,19.407988 33.309285,23.331767 44.01528,28.083239 C 48.14028,29.913972 60.06528,34.983827 70.51528,39.349583 C 127.94037,63.34039 137.54858,67.517921 175.01528,84.784882 C 218.44351,104.79928 300.53748,147.47954 308.55681,154.21247 C 311.28397,156.50216 318.66072,161.78305 324.94959,165.94778 C 333.5302,171.63019 337.22781,173.52002 339.76533,173.52002 C 344.28929,173.52002 346.71524,174.87495 351.73068,180.20283 C 354.04914,182.66573 356.29914,184.49343 356.73068,184.2644 C 357.16221,184.03536 363.89801,180.13794 371.69913,175.60346 L 385.88298,167.35895 L 397.81437,148.18948 C 414.65673,121.12984 427.72187,98.849959 437.71858,80.141128 C 452.20374,53.032177 453.22193,51.828064 456.74017,57.646171 C 458.22824,60.106991 458.15597,60.830988 455.59221,69.146171 C 451.02839,83.948282 439.29431,116.76969 433.36816,131.30908 C 430.2945,138.8501 426.22835,148.84502 424.33229,153.52002 C 422.43622,158.19502 420.65221,162.55351 420.36783,163.20555 C 420.08345,163.8576 421.67497,165.54265 423.90453,166.95011 C 432.34578,172.27883 433.19151,181.38974 426.6468,196.49215 C 424.64947,201.10116 423.01231,205.80544 423.00869,206.9461 C 422.9976,210.43712 419.76116,214.21734 410.44256,221.62359 C 398.91469,230.78571 398.80324,230.93433 400.50724,234.87231 C 401.25636,236.60355 402.113,238.80752 402.41089,239.77002 C 402.70878,240.73252 403.85041,241.52002 404.94784,241.52002 C 407.4181,241.52002 412.01498,248.01198 412.01607,251.50215 C 412.0165,252.88698 413.4067,256.94502 415.1054,260.52002 C 418.58066,267.83391 436.53311,307.55033 449.00658,335.52002 C 453.54427,345.69502 461.21035,362.79502 466.04233,373.52002 C 470.87431,384.24502 476.7156,397.29502 479.02299,402.52002 C 481.33037,407.74502 484.51105,414.94502 486.09117,418.52002 C 492.87691,433.87271 503.70981,459.48027 511.51265,478.61307 C 516.13175,489.93925 525.39354,511.98925 532.0944,527.61307 C 550.4213,570.34434 557.01528,586.60199 557.01528,589.05623 C 557.01528,593.51066 551.74079,594.89151 550.38245,590.7927 C 549.57404,588.35329 536.1338,559.13878 521.7337,528.52002 C 515.13769,514.49502 497.59269,479.17002 482.74481,450.02002 C 467.89692,420.87002 453.05239,391.62002 449.75695,385.02002 C 446.46152,378.42002 440.96722,368.07002 437.54739,362.02002 C 422.28296,335.01576 401.63485,295.98129 399.08939,289.31663 C 397.55664,285.30349 394.86201,277.66611 393.10133,272.34466 C 389.05645,260.11953 388.25518,259.38447 382.43777,262.56236 C 380.0054,263.8911 377.97778,265.21265 377.93195,265.49913 C 377.88611,265.78562 377.66347,266.92002 377.43719,268.02002 C 377.2109,269.12002 376.6859,272.25943 376.27052,274.9965 C 375.44806,280.41591 375.80558,280.12635 357.9319,289.84904 L 352.73119,292.67805 L 380.85295,719.52002 L 340.96778,719.52002 L 296.29138,719.52002 C 296.29138,719.52002 306.84703,297.39269 305.44304,296.85392 z M 385.484,251.88006 C 386.0619,248.02636 385.84961,246.90991 384.23123,245.29153 C 382.29981,243.36011 382.2463,243.36152 378.14897,245.45181 C 375.87544,246.61168 374.01528,248.18412 374.01528,248.94611 C 374.01528,250.21005 382.39471,256.52002 384.07318,256.52002 C 384.46644,256.52002 385.1013,254.43204 385.484,251.88006 z " />
</svg>

<svg xmlns="http://www.w3.org/2000/svg" width="577.02" height="719.52" version="1.0"><path d="M305.443 296.854c-.87-.334-1.988-1.678-2.486-2.987-.63-1.657-3.25-3.45-8.615-5.894-4.24-1.933-8.411-3.399-9.268-3.258-2.544.417-4.059-1.128-4.059-4.138 0-2.749-2.079-5.036-10.504-11.557-3.325-2.574-5.396-8.518-5.452-15.646-.04-5.213.222-5.88 3.417-8.685 1.903-1.67 5.615-4.266 8.25-5.767s6.246-3.8 8.027-5.107c2.558-1.879 3.647-2.16 5.184-1.337 1.07.573 2.672 1.042 3.558 1.042 2.682 0 6.52-4.627 6.52-7.859 0-2.638.734-3.33 6.949-6.545 3.821-1.978 8.353-3.596 10.07-3.596 3.06 0 11.132-4.603 13.731-7.83.688-.854 1.25-3.33 1.25-5.503 0-5.83-6.292-12.7-18.122-19.782a9920 9920 0 0 1-28.878-17.411C246.223 141.525 156.961 94.727 89.784 62.637 56.789 46.877 23.405 30.278 21.827 28.85c-1.9-1.718-2.516-7.776-.894-8.778 1.073-.663 12.376 3.26 23.082 8.012 4.125 1.831 16.05 6.9 26.5 11.267 57.425 23.99 67.034 28.168 104.5 45.435 43.429 20.014 125.522 62.695 133.542 69.427 2.727 2.29 10.104 7.571 16.393 11.736 8.58 5.682 12.278 7.572 14.815 7.572 4.524 0 6.95 1.355 11.966 6.683 2.318 2.463 4.568 4.29 5 4.061.431-.229 7.167-4.126 14.968-8.66l14.184-8.245 11.931-19.17c16.843-27.06 29.908-49.339 39.905-68.048 14.485-27.109 15.503-28.313 19.021-22.495 1.488 2.461 1.416 3.185-1.148 11.5-4.564 14.802-16.298 47.624-22.224 62.163-3.073 7.541-7.14 17.536-9.036 22.211s-3.68 9.034-3.964 9.686c-.285.652 1.307 2.337 3.537 3.744 8.44 5.329 9.287 14.44 2.742 29.542-1.998 4.61-3.635 9.313-3.638 10.454-.011 3.491-3.248 7.271-12.566 14.678-11.528 9.162-11.64 9.31-9.936 13.248.75 1.732 1.606 3.936 1.904 4.898.298.963 1.44 1.75 2.537 1.75 2.47 0 7.067 6.492 7.068 9.982 0 1.385 1.39 5.443 3.09 9.018 3.475 7.314 21.427 47.03 33.9 75a13274 13274 0 0 0 17.036 38c4.832 10.725 10.674 23.775 12.981 29s5.488 12.425 7.068 16c6.786 15.353 17.619 40.96 25.422 60.093 4.619 11.326 13.88 33.376 20.581 49 18.327 42.731 24.921 58.989 24.921 61.443 0 4.455-5.274 5.836-6.633 1.737-.808-2.44-14.248-31.654-28.648-62.273-6.596-14.025-24.141-49.35-38.99-78.5-14.847-29.15-29.692-58.4-32.987-65s-8.79-16.95-12.21-23c-15.264-27.004-35.912-66.039-38.458-72.703-1.532-4.014-4.227-11.65-5.988-16.972-4.045-12.225-4.846-12.96-10.663-9.783-2.433 1.33-4.46 2.65-4.506 2.937s-.269 1.421-.495 2.521-.751 4.24-1.166 6.977c-.823 5.419-.465 5.13-18.34 14.852l-5.2 2.829 28.122 426.842H296.29s10.556-422.127 9.152-422.666m80.041-44.974c.578-3.854.366-4.97-1.253-6.588-1.931-1.932-1.985-1.93-6.082.16-2.274 1.16-4.134 2.732-4.134 3.494 0 1.264 8.38 7.574 10.058 7.574.393 0 1.028-2.088 1.411-4.64" style="fill:#000;stroke:none"/></svg>
